Newaita-dark/actions/22/zoom.svg

<svg height="22" viewBox="0 0 22 22" width="22" xmlns="http://www.w3.org/2000/svg"><g fill="#e0e0e0"><path d="m15.101562 14.003906c-.367187.488282-.800781.921875-1.289062 1.285156l3.871094 3.867188c.175781.179688.464844.179688.640625 0l.644531-.640625c.175781-.179687.175781-.464844 0-.644531zm0 0"/><path d="m10.003906 2.902344c-4.03125 0-7.273437 3.242187-7.273437 7.273437s3.242187 7.277344 7.273437 7.277344 7.277344-3.246094 7.277344-7.277344-3.246094-7.273437-7.277344-7.273437zm0 1.816406c3.023438 0 5.460938 2.433594 5.460938 5.457031 0 3.023438-2.4375 5.460938-5.460938 5.460938-3.023437 0-5.457031-2.4375-5.457031-5.460938 0-3.023437 2.433594-5.457031 5.457031-5.457031zm0 0"/></g></svg>

<svg xmlns="http://www.w3.org/2000/svg" xmlns:xlink="http://www.w3.org/1999/xlink" width="22px" height="22px" viewBox="0 0 22 22" version="1.1">
<g id="surface1">
     <defs>
  <style id="current-color-scheme" type="text/css">
   .ColorScheme-Text { color:#eeeeee; } .ColorScheme-Highlight { color:#424242; }
  </style>
 </defs>
<path style="fill:currentColor" class="ColorScheme-Text" d="M 15.101562 14.003906 C 14.734375 14.492188 14.300781 14.925781 13.8125 15.289062 L 17.683594 19.15625 C 17.859375 19.335938 18.148438 19.335938 18.324219 19.15625 L 18.96875 18.515625 C 19.144531 18.335938 19.144531 18.050781 18.96875 17.871094 Z M 15.101562 14.003906 "/>
     <defs>
  <style id="current-color-scheme" type="text/css">
   .ColorScheme-Text { color:#eeeeee; } .ColorScheme-Highlight { color:#424242; }
  </style>
 </defs>
<path style="fill:currentColor" class="ColorScheme-Text" d="M 10.003906 2.902344 C 5.972656 2.902344 2.730469 6.144531 2.730469 10.175781 C 2.730469 14.207031 5.972656 17.453125 10.003906 17.453125 C 14.035156 17.453125 17.28125 14.207031 17.28125 10.175781 C 17.28125 6.144531 14.035156 2.902344 10.003906 2.902344 Z M 10.003906 4.71875 C 13.027344 4.71875 15.464844 7.152344 15.464844 10.175781 C 15.464844 13.199219 13.027344 15.636719 10.003906 15.636719 C 6.980469 15.636719 4.546875 13.199219 4.546875 10.175781 C 4.546875 7.152344 6.980469 4.71875 10.003906 4.71875 Z M 10.003906 4.71875 "/>
</g>
</svg>
